public/tinker_icon.svg

<svg xmlns="http://www.w3.org/2000/svg" viewBox="0 0 512 512" style="height: 512px; width: 512px;"><g class="" transform="translate(0,0)" style=""><path d="M409.28 19.313c-20.507.34-40.836 8.245-56.53 23.937-20.558 20.558-27.823 49.56-22.188 76.156l1.032 4.938-3.594 3.594-43.406 43.406a38.984 38.984 0 0 1 9.72 10.625c7.166 11.59 6.305 28.69-6.22 41.218l-11.97 11.968 30.438 30.47 79.563-79.563 3.563-3.594 4.968 1.06c26.44 5.525 55.136-1.98 75.75-22.593 23.596-23.595 29.518-57.696 18.688-87.093l-49.22 49.25c-13.71 13.708-36.3 15.01-50.093 1.22-13.79-13.793-13.07-36.618.814-50.5l49.22-49.25c-8.545-3.15-17.475-4.93-26.44-5.22a83.367 83.367 0 0 0-4.093-.032zM72.157 21.53c-13.533.162-25.857 6.134-34.937 15.69-18.163 19.108-23.575 51.08 4.56 79.218l86.126 86.124c30.25 2.733 53.004 26.662 53.906 57.532L182 266c.883 5.654 4.31 10.126 8.844 12.47 5.734 2.963 12.387 3.145 19.625-4.095l64.405-64.406c7.718-7.72 6.896-12.716 3.53-18.157-3.364-5.442-11.272-10.063-18.81-10.063h-.19l-.186-.03c-30.125-1.298-53.427-23.487-56.5-53l-86.595-86.595C100.84 26.84 85.69 21.37 72.155 21.53zm191.188 227.314-14.03 14.03 136.5 136.532 3.31 3.313-.655 4.655-4.595 31.813 77.188 49.375L489 460.625l-49.375-77.22-31.78 4.595-4.658.688-3.312-3.313-136.53-136.53zm-27.72 26.812-11.936 11.938c-12.238 12.24-29.134 13.86-41.438 7.5a35.246 35.246 0 0 1-11.656-9.72l-41.78 41.782-3.595 3.594-4.97-1.063c-26.596-5.632-55.6 1.632-76.156 22.188-23.598 23.596-29.52 57.697-18.688 87.094l49.25-49.25c13.883-13.877 36.71-14.605 50.5-.814 13.792 13.792 12.494 36.384-1.22 50.094l-49.25 49.25c29.398 10.83 63.498 4.906 87.095-18.688 20.613-20.615 28.114-49.342 22.595-75.78l-1.03-4.938 3.56-3.563 79.19-79.186-30.47-30.438z" fill="#a2e732" fill-opacity="1" transform="translate(0, 512) scale(1, -1) rotate(0, 256, 256) skewX(0) skewY(0)"></path></g><g font-family="Arial, Helvetica, sans-serif" font-size="32" font-style="normal" font-weight="bold" text-anchor="middle" text-decoration=" rgba(162, 231, 50, 1)" class="" transform="translate(237,472)" style=""><g><text stroke="rgba(250, 250, 250, 1)" stroke-width="8"><tspan x="0" y="0">YG_Toolkit</tspan></text><text fill="rgba(162, 231, 50, 1)"><tspan x="0" y="0">YG_Toolkit</tspan></text></g></g></svg>

<svg xmlns="http://www.w3.org/2000/svg" viewBox="0 0 512 512" style="height: 256px; width: 256px;"><g class="" transform="translate(0,0)" style=""><g transform="translate(25.6, 486.4) scale(0.9, -0.9) rotate(-375, 256, 256) skewX(0) skewY(0)"><path d="M409.28 19.313C388.773 19.653 368.444 27.558 352.75 43.25C332.192 63.808 324.927 92.81 330.562 119.406L331.594 124.344L328 127.938L284.594 171.344C288.466 174.251 291.762 177.854 294.314 181.969C301.48 193.559 300.619 210.659 288.094 223.187L276.124 235.155L306.562 265.625L386.125 186.062L389.688 182.468L394.656 183.528C421.096 189.053 449.792 181.548 470.406 160.935C494.002 137.34 499.924 103.239 489.094 73.842L439.874 123.092C426.164 136.8 403.574 138.102 389.781 124.312C375.991 110.519 376.711 87.694 390.595 73.812L439.815 24.562C431.27 21.412 422.34 19.632 413.375 19.342C412.011 19.298 410.646 19.287 409.282 19.31Z" class="" fill="#f7fee7" fill-opacity="1" stroke="#5ea500" stroke-opacity="1" stroke-width="8"></path><path d="M72.157 21.53C58.624 21.692 46.3 27.664 37.22 37.22C19.057 56.328 13.645 88.3 41.78 116.438L127.906 202.562C158.156 205.295 180.91 229.224 181.812 260.094L182 266C182.883 271.654 186.31 276.126 190.844 278.47C196.578 281.433 203.231 281.615 210.469 274.375L274.874 209.969C282.592 202.249 281.77 197.253 278.404 191.812C275.04 186.37 267.132 181.749 259.594 181.749L259.404 181.749L259.218 181.719C229.093 180.421 205.791 158.232 202.718 128.719L116.123 42.124C100.84 26.84 85.69 21.37 72.155 21.53Z" class="" fill="#f7fee7" fill-opacity="1" stroke="#5ea500" stroke-opacity="1" stroke-width="8"></path><path d="M263.345 248.844L249.315 262.874L385.815 399.406L389.125 402.719L388.47 407.374L383.875 439.187L461.063 488.562L489 460.625L439.625 383.405L407.845 388L403.187 388.688L399.875 385.375L263.345 248.845Z" class="selected" fill="#f7fee7" fill-opacity="1" stroke="#5ea500" stroke-opacity="1" stroke-width="4"></path><path d="M235.625 275.656L223.689 287.594C211.451 299.834 194.555 301.454 182.251 295.094C177.706 292.739 173.728 289.422 170.595 285.374L128.815 327.156L125.22 330.75L120.25 329.687C93.654 324.055 64.65 331.319 44.094 351.875C20.496 375.471 14.574 409.572 25.406 438.969L74.656 389.719C88.539 375.842 111.366 375.114 125.156 388.905C138.948 402.697 137.65 425.289 123.936 438.999L74.686 488.249C104.084 499.079 138.184 493.155 161.781 469.561C182.394 448.946 189.895 420.219 184.376 393.781L183.346 388.843L186.906 385.28L266.096 306.094L235.626 275.656Z" class="" fill="#f7fee7" fill-opacity="1" stroke="#5ea500" stroke-opacity="1" stroke-width="8"></path></g></g></svg>
